X: 52
T:Debka Chayim
C:Shlomo Shai 1979
O:Israeli
M:2/4
L:1/8
Q:1/4=96
K:EMin
|:.E.B .B.B|B/d/^c/d/ BA|.G.G.G.G|AB G=F    |
  .E.B .B.B|B/d/^c/d/ BA|.G.G.G.G|=FE z2    :|
|:E>e ee   |AB/^c/ de   |AB2A    |^c/d/B Bz |
  A>c BA   |G4          |eE2G    |=F/E/E E2 :|



